X:1
T:Chiswick Park, 87.87.87
T:Chiswick Park, 87.87.87
T:Susan C. Umlauf, before 1917
T:Public Domain Courtesy of the Cyber Hymnal™
C:Susan C. Umlauf, before 1917
Z:Public Domain
Z:Courtesy of the Cyber Hymnal™
%%score ( 1 2 ) ( 3 4 )
L:1/8
Q:1/4=102
M:4/4
K:A
V:1 treble 
V:2 treble 
V:3 bass 
V:4 bass 
V:1
 (EF) (GA) [DA]2 [DG]2 | (DA) (GF) [^B,F]2 [CE]2 | (EF) (EF) ([CE][Gc]) (Bd) | [Ec]2 [DB]2 [CA]4 | %4
 (AB) (AB) [DA]2 (dB) | [EA]2 [E=G]2 [DF]2 [EF]2 | ([^DF][=DG]) (A^A) (BG) (Fc) | B2 B2 e2 E2 | %8
 (EF) (GA) [DA]2 [DG]2 | (FA) (GF) [^B,F]2 (EA) | (ec) (BA) [Af]2 [A=f]2 | (ec) B2 [EA]4 |] %12
V:2
 C2 C2 x4 | D2 D2 x4 | C2 D2 x F2 x | x8 | C2 C2 x F2 x | x8 | x2 ^D2 B,2 E2 | %7
 (^DA) (GF) (E=D) (CB,) | A,2 C2 x4 | D2 D2 x C2 x | =G2 G2 x4 | A2 (AG) x4 |] %12
V:3
 [A,,A,]2 (E,^E,) [A,,F,]2 [A,,B,]2 | [A,,E,]2 (B,E,) [A,,^D,]2 [A,,E,]2 | %2
 ([A,,A,][A,,F,]) [B,,G,]2 (A,^A,) B,2 | (A,E,) (F,G,) [A,,A,]4 | [=G,A,]2 A,2 [F,A,]2 [D,A,]2 | %5
 A,2 A,2 [D,A,]2 [C,^A,]2 | A,^E, (F,^^F,) ([B,,G,] E,)([A,,C][^^F,,A,]) | (F,C) (B,A,) (G,F,) x2 | %8
 [A,,C,]2 (E,^E,) [A,,F,]2 [A,,B,]2 | [A,,E,]2 (B,E,) [A,,^D,]2 [A,,E,]2 | %10
 [A,,C]2 [A,,C]2 [D,A,]2 (B,^B,) | [E,C]2 ([F,^D][E,=D]) [A,,C]4 |] %12
V:4
 x2 A,,2 x4 | x2 A,,2 x4 | x4 C,2 (D,B,,) | E,2 E,2 x4 | x2 (E,^E,) x4 | (C,^A,,) (B,,C,) x4 | %6
 B,,2 B,,2 ^E, x3 | B,,2 B,,2 E,,2 (E,D,) | x2 A,,2 x4 | x2 A,,2 x4 | x6 ^D,2 | x8 |] %12

